!!!!SEGMENT: pl-kk--kk-i-7--107_gorczycki-grzegorz-gerwazy--eia-mater.krn
!!!cenid: 16xx:946
!!!COM: Gorczycki, Grzegorz Gerwazy
!!!COM-rismid: pe30009207
!!!CDT: ~1666-1734/04/30
!!!CNT: Polish
!!!OTL: Eia Mater
!!!PDT:
!!!AGN: Sacred
!!!SMS-siglum: PL-Kk
!!!SMS-shelfmark: Kk.I.7
!!!SMS-shelfwork: 107 W
!!!SMS-variant:
!!!SMS-altvar:
!!!NIFC-rismid: 300258184
!!!URL-scan: http://repozytorium.nifc.pl/skany/pl-kk-nut--i-7
!!!ONB-nifc: UWAGA: C (skan 0080, s.153), A (0158, s.137), T(0245, s.153), B(0332, s.149). Następny utwór: Christe sanctorum
**kern	**text	**text	**text	**kern	**text	**text	**text	**kern	**text	**text	**text	**kern	**text	**text	**text
*part4	*part4	*part4	*part4	*part3	*part3	*part3	*part3	*part2	*part2	*part2	*part2	*part1	*part1	*part1	*part1
*staff4	*staff4	*staff4	*staff4	*staff3	*staff3	*staff3	*staff3	*staff2	*staff2	*staff2	*staff2	*staff1	*staff1	*staff1	*staff1
*group1	*	*	*	*group1	*	*	*	*group1	*	*	*	*group1	*	*	*
*	*verse1	*verse2	*verse3	*	*verse1	*verse2	*verse3	*	*verse1	*verse2	*verse3	*	*verse1	*verse2	*verse3
*I"BASSVS.	*	*	*	*I"TENOR.	*	*	*	*I"ALTVS.	*	*	*	*I"CANTVS.	*	*	*
*I'B	*	*	*	*I'T	*	*	*	*I'A	*	*	*	*I'S	*	*	*
*clefF4	*	*	*	*clefC4	*	*	*	*clefC3	*	*	*	*clefC1	*	*	*
*k[b-]	*	*	*	*k[b-]	*	*	*	*k[b-]	*	*	*	*k[b-]	*	*	*
*M3/2	*	*	*	*M3/2	*	*	*	*M3/2	*	*	*	*M3/2	*	*	*
=1	=1	=1	=1	=1	=1	=1	=1	=1	=1	=1	=1	=1	=1	=1	=1
1F	E-	San-	Fac	1A	E-	San-	Fac	1c	E-	San-	Fac	1f	E-	San-	Fac
*	*	*	*	*2\right	*	*	*	*2\right	*	*	*	*	*	*	*
2C/	-ja	-cta	me	2c\	-ja	-cta	me	2e\	-ja	-cta	me	2g/	-ja	-cta	me
=2	=2	=2	=2	=2	=2	=2	=2	=2	=2	=2	=2	=2	=2	=2	=2
1F	Ma-	Ma-	Ve-	1c	Ma-	Ma-	ve-	1f	Ma-	Ma-	Ve-	1a	Ma-	Ma-	ve-
*2\right	*	*	*	*	*	*	*	*	*	*	*	*2\right	*	*	*
2F\	-ter	-ter	-rè	2c\	-ter	-ter	-rè	2f\	-ter	-ter	-rè	2a\	-ter	-ter	-re
=3	=3	=3	=3	=3	=3	=3	=3	=3	=3	=3	=3	=3	=3	=3	=3
1D	Fons	i-	Te-	1d	Fons	i-	Te-	1f	Fons	i-	Te-	1b-X	Fons	i-	te-
2En\	a-	-ſtud	-cum	2d\	a-	-ſtud	-cum	2g\	a-	-ſtud	-cum	2b-\	a-	-ſtud	-cum
=4	=4	=4	=4	=4	=4	=4	=4	=4	=4	=4	=4	=4	=4	=4	=4
1.F	-mo-	a-	fle-	1.c	-mo-	a-	fle-	1.a	-mo-	a-	fle-	1.a	-mo-	a-	fle-
=5	=5	=5	=5	=5	=5	=5	=5	=5	=5	=5	=5	=5	=5	=5	=5
1.F	-ris,	-gas,	-re	1.c	-ris,	-gas	-re,	1.f	-ris,	-gas	-re,	1.a,<	-ris	-gas	-re
=6	=6	=6	=6	=6	=6	=6	=6	=6	=6	=6	=6	=6	=6	=6	=6
1FF	me	Cru-	Cru-	1c	me	Cru-	Cru-	1a	me	Cru-	Cru-	1cc	me	Cru-	Cru-
2FF/	sen-	-ci-	-ci-	2A/	sen-	-ci-	-ci-	2a\	sen-	-ci-	-ci-	2cc\	sen-	-ci-	-ci-
=7	=7	=7	=7	=7	=7	=7	=7	=7	=7	=7	=7	=7	=7	=7	=7
1GG	-ti-	-fi-	-fi-	1d	-ti-	-fi-	-fi-	1g	-ti-	-fi-	-fi-	1b-X	-ti-	-fi-	-fi-
2GG/	-re	-xi	-xo	2B-\	-re	-xi	-xo	2g\	-re	-xi	-xo	2b-\	-re	-xi	-xo
=8	=8	=8	=8	=8	=8	=8	=8	=8	=8	=8	=8	=8	=8	=8	=8
1AA	Vim	fi-	con-	1c	vim	fi-	con-	1f	vim	fi-	con-	1a	vim	fi-	con-
2BB-/	do-	-ge	-do-	2F/	do-	-ge	-do-	2f\	do-	-ge	-do-	2a\	do-	-ge	-do-
=9	=9	=9	=9	=9	=9	=9	=9	=9	=9	=9	=9	=9	=9	=9	=9
1.C	-lo-	pla-	-le-	1.c	-lo-	pla-	-le-	1.e	-lo-	pla-	-le-	1.g	-lo-	pla-	-le-
=10	=10	=10	=10	=10	=10	=10	=10	=10	=10	=10	=10	=10	=10	=10	=10
1.C	-ris,	-gas	-re,	1.c	-ris	-gas	-re	1.e	-ris	-gas	-re	1.g	-ris	-gas	-re
=11	=11	=11	=11	=11	=11	=11	=11	=11	=11	=11	=11	=11	=11	=11	=11
1F	fac	Cor-	do-	1A	fac	cor-	do-	1c	fac	Cor-	do-	1f	fac	cor-	do-
2E\	ut	-di	-nec	2c\	ut	-di	-nec	2c/	ut	-di	-nec	2g/	ut	-di	-nec
=12	=12	=12	=12	=12	=12	=12	=12	=12	=12	=12	=12	=12	=12	=12	=12
1F	Te-	me-	e-	1c	Te-	me-	e-	1f	te-	me-	e-	1a	te-	me-	e-
!LO:SIC:v:t=custos C	!	!	!	!LO:SIC:v:t=custos c	!	!	!	!LO:SIC:v:t=custos g	!	!	!	!	!	!	!
2BB-/	-cum	-o	-go	2d\	-cum	-o	-go,	[<2f\	-cum	-o	-go	2b-\	-cum	-o	-go
!LO:LB:g=original	!	!	!	!LO:LB:g=original	!	!	!	!LO:LB:g=original	!	!	!	!	!	!	!
=13	=13	=13	=13	=13	=13	=13	=13	=13	=13	=13	=13	=13	=13	=13	=13
!	!	!	!	!	!	!	!	!LO:TX:t=P:problem:brak dokończenia ligatury	!	!	!	!	!	!	!
1C	lu-	va-	vi-	1c	lu-	va-	vi-	2f\]	.	.	.	1g	lu-	va-	vi-
.	.	.	.	.	.	.	.	2f\	lu-	va-	vi-	.	.	.	.
2C/	-ge-	-li-	-xe-	2c\	-ge-	-li-	-xe-	2e\	-ge-	-li-	-xe-	2g/	-ge-	-li-	-xe-
=14	=14	=14	=14	=14	=14	=14	=14	=14	=14	=14	=14	=14	=14	=14	=14
1.FF	-am.	-dè.	-ro.	1.c	-am:	-de.	-ro.	1.f	-am:	-de.	-ro.	1.a	-am.	-de,	-ro,
!	!	!	!	!	!	!	!	!	!	!	!	!LO:LB:g=original	!	!	!
=15||	=15||	=15||	=15||	=15||	=15||	=15||	=15||	=15||	=15||	=15||	=15||	=15||	=15||	=15||	=15||
*	*	*	*	*	*	*	*	*	*	*	*	*M3/2	*	*	*
1D	Fac	Tu-	Ju-	1A	Fac	Tu-	Ju-	1d	Fac	Tu-	Ju-	1f	Fac	Tu-	Jux-
2C/	ut	-i	-xta	2c\	ut	-i	-xta	2e\	ut	-i	-xta	2g/	ut	-i	-ta
=16	=16	=16	=16	=16	=16	=16	=16	=16	=16	=16	=16	=16	=16	=16	=16
2.F\	ar-	Na-	Cru-	2.c\	ar-	Na-	Cru-	2.f\	ar-	Na-	Cru-	2.a\	ar-	Na-	Cru-
4E\	-de-	-ti	-cem	4c\	-de-	-ti	-cem	4c/	-de-	-ti	-cem	4g\	-de-	-ti	-cem
2D/	-at	Vul-	Te-	2d\	-at	Vul-	Te-	2f\	-at	Vul-	Te-	(4f/	-at	Vul-	te-
.	.	.	.	.	.	.	.	.	.	.	.	4g/)	.	.	.
=17	=17	=17	=17	=17	=17	=17	=17	=17	=17	=17	=17	=17	=17	=17	=17
2C/	cor	-ne-	-cum	2A/	cor	-ne-	-cum	2e\	cor	-ne-	-cum	2a\	Cor	-ne-	-cum
1BB-X	me-	-ra-	sta-	1d	me-	-ra-	sta-	(2d\	me-	-ra-	sta-	(2a\	me-	-ra-	sta-
.	.	.	.	.	.	.	.	2g\)	.	.	.	2g/)	.	.	.
=18	=18	=18	=18	=18	=18	=18	=18	=18	=18	=18	=18	=18	=18	=18	=18
1AA	-um,	-ti	-re,	2c#X,<\	-um	-ti	-re,	1e	-um,	-ti	-re	1.a	-um	-ti	-re
.	.	.	.	2e\	in	tam	Te	.	.	.	.	.	.	.	.
2rBB	.	.	.	2d\	a-	dig-	li-	2r	.	.	.	.	.	.	.
=19	=19	=19	=19	=19	=19	=19	=19	=19	=19	=19	=19	=19	=19	=19	=19
2r	.	.	.	1cn	-man-	-na-	-ben-	1.rg	.	.	.	0.r	.	.	.
2A\	in	tam	Te	.	.	.	.	.	.	.	.	.	.	.	.
2G\	a-	dig-	li-	2Bn\	-do	-ti	-ter	.	.	.	.	.	.	.	.
=20	=20	=20	=20	=20	=20	=20	=20	=20	=20	=20	=20	=20-	=20-	=20-	=20-
1F	-man-	-na-	-ben-	1.A	Chri-	pro-	so-	2r	.	.	.	.	.	.	.
.	.	.	.	.	.	.	.	2a\	in	tam	Te	.	.	.	.
2E\	-do	-ti	-ter	.	.	.	.	2g\	a-	dig-	li-	.	.	.	.
=21	=21	=21	=21	=21	=21	=21	=21	=21	=21	=21	=21	=21	=21	=21	=21
1D	Chri-	pro	so-	1.A	-stum	-me	-ci-	4f\	-man-	-na-	-ben-	2r	.	.	.
.	.	.	.	.	.	.	.	4e\	.	.	.	.	.	.	.
.	.	.	.	.	.	.	.	4f\	.	.	.	2dd\	in	tam	Te
.	.	.	.	.	.	.	.	4g\	.	.	.	.	.	.	.
2D/	-stum	me	-ci-	.	.	.	.	2a\	-do	-ti	-ter	2cc\	a-	dig-	li-
=22	=22	=22	=22	=22	=22	=22	=22	=22	=22	=22	=22	=22	=22	=22	=22
*	*	*	*	*	*ij	*ij	*	*	*	*	*	*	*	*	*
[<1.E	De-	pa-	-a-	1G#X	Chri-	pro-	a-	1e	X-	pro-	so-	2.bn\	-man-	-na-	-ben-
.	.	.	.	.	.	.	.	.	.	.	.	4b\	-do	-ti	-ter
.	.	.	.	[2A/	-stum	-me	.	2c/	-tum	-me	-ci-	2cc\	Chri-	pro-	so-
*	*	*	*	*	*Xij	*Xij	*	*	*	*	*	*	*	*	*
=23	=23	=23	=23	=23	=23	=23	=23	=23	=23	=23	=23	=23	=23	=23	=23
1.E]	.	.	.	2A,</]	.	.	.	1.e	De-	pa-	-a-	2cc,<\	-stum	-me	-ci-
.	.	.	.	2A/	De-	pa-	.	.	.	.	.	(2cc\	De-	pa-	-a-
.	.	.	.	2G#X/	.	.	.	.	.	.	.	2bn\)	.	.	.
=24	=24	=24	=24	=24	=24	=24	=24	=24	=24	=24	=24	=24	=24	=24	=24
1AA,<	-um	-ti	-re	1.A	-um,	-ti,	-re,	1.e	-um	-ti	-re	1.cc	-um	-ti	-re
2F\	ut	pae-	in	.	.	.	.	.	.	.	.	.	.	.	.
!	!	!	!	!LO:LB:g=original	!	!	!	!LO:LB:g=original	!	!	!	!	!	!	!
=25	=25	=25	=25	=25	=25	=25	=25	=25	=25	=25	=25	=25	=25	=25	=25
2E\	si-	-nas	plan-	2r	.	.	.	1.rg	.	.	.	0.r	.	.	.
2C/	-bi	me-	.	2r	.	.	.	.	.	.	.	.	.	.	.
!LO:SIC:v:t=custos F	!	!	!	!	!	!	!	!	!	!	!	!	!	!	!
2E\	com-	-cum	-ctu	2c\	ut	pae-	in	.	.	.	.	.	.	.	.
!LO:LB:g=original	!	!	!	!	!	!	!	!	!	!	!	!	!	!	!
=26	=26	=26	=26	=26	=26	=26	=26	=26	=26	=26	=26	=26-	=26-	=26-	=26-
(2.F\	-pla-	me-	de-	2A/	si-	-nas	plan-	2r	.	.	.	.	.	.	.
.	.	.	.	2F/	-bi	me-	-ctu	2r	.	.	.	.	.	.	.
4G\	.	.	.	.	.	.	.	.	.	.	.	.	.	.	.
4A\	.	.	.	[<2c\	com-	-cum	in	2f\	ut	pae-	in	.	.	.	.
4B-\)	.	.	.	.	.	.	.	.	.	.	.	.	.	.	.
=27	=27	=27	=27	=27	=27	=27	=27	=27	=27	=27	=27	=27	=27	=27	=27
!	!	!	!	!LO:N:xstem:cue	!	!	!	!	!	!	!	!	!	!	!
2c\	.	.	.	4c\]	.	.	.	2e\	si-	-nas	plan-	2r	.	.	.
.	.	.	.	4d\	.	.	.	.	.	.	.	.	.	.	.
1C	.	.	.	4e\	.	.	.	2c/	-bi	me-	.	2r	.	.	.
.	.	.	.	4d\	.	.	.	.	.	.	.	.	.	.	.
.	.	.	.	4c\	.	.	.	2e\	com-	-cum	-ctu	2cc\	ut	pae-	in
.	.	.	.	4B-\	.	.	.	.	.	.	.	.	.	.	.
=28	=28	=28	=28	=28	=28	=28	=28	=28	=28	=28	=28	=28	=28	=28	=28
2.D\	.	.	.	2A/	-pla-	di-	plan-	2.f\	-pla-	di-	de-	2a\	si-	-nas	plan-
.	.	.	.	1d	.	.	-ctu	.	.	.	.	2f/	-bi	me-	-ctu
4E\	.	.	.	.	.	.	.	4g\	.	.	.	.	.	.	.
!	!	!	!	!	!	!	!	!	!	!	!	!LO:SIC:v:t=custos a	!	!	!
4F\	.	.	.	.	.	.	.	2a\	.	.	.	2a\	com-	-cum	de-
4G\	.	.	.	.	.	.	.	.	.	.	.	.	.	.	.
!	!	!	!	!	!	!	!	!	!	!	!	!LO:LB:g=original	!	!	!
=29	=29	=29	=29	=29	=29	=29	=29	=29	=29	=29	=29	=29	=29	=29	=29
1A	.	.	.	1c#X	.	.	de-	2.e\	.	.	.	1a	-pla-	di-	-si-
.	.	.	.	.	.	.	.	4f\	.	.	.	.	.	.	.
1Gn	.	cum	.	1d	.	.	.	[<2g\	.	.	.	1b-X\	.	.	.
=30-	=30-	=30-	=30-	=30-	=30-	=30-	=30-	=30	=30	=30	=30	=30-	=30-	=30-	=30-
!	!	!	!	!	!	!	!	!LO:N:xstem:cue	!	!	!	!	!	!	!
.	.	.	.	.	.	.	.	4g\]	.	.	.	.	.	.	.
.	.	.	.	.	.	.	.	4f\	.	.	.	.	.	.	.
2A\	.	di-	-si-	2d\	.	.	si-	2.e\	.	.	si-	2a\	.	.	.
2AA/	-ce-	-vi-	-de-	2c#X\	-ce-	-vi-	-de-	.	.	.	.	2a\	-ce-	-vi-	-de-
.	.	.	.	.	.	.	.	4e\	-ce-	-vi-	-de-	.	.	.	.
=31	=31	=31	=31	=31	=31	=31	=31	=31	=31	=31	=31	=31	=31	=31	=31
1.Dl;	-am.	-de.	-ro.	1.dl;	-am.	-de	-ro.	1.f#Xl;	-am.	-de.	-ro.	1.al;	-am.	-de.	-ro.
==	==	==	==	==	==	==	==	==	==	==	==	==	==	==	==
*-	*-	*-	*-	*-	*-	*-	*-	*-	*-	*-	*-	*-	*-	*-	*-
!!!system-decoration: [g1]
!!!RDF**kern: > = above
!!!RDF**kern: < = below
!!!RDF**kern: l = terminal long
!!!ENC: Andrzej Kubiczek
!!!END: 2021-03-20
!!!ENC: Krzysztof Stępień
!!!END: 2021-03-04
